!!!COM: Falla (y Matheu), Manuel de
!!!OTL: Seven Spanish Folksongs for Voice and Piano
!!!example: 310
!!!work: Fal-3
**kern	**kern	**dynam
*grp:A	*grp:B	*grp:B
*part1	*part1	*part1
*staff2	*staff1	*S
*I"Piano	*	*
*I'Pno.	*	*
*clefF4	*clefF4	*
*k[f#c#g#d#a#e#]	*k[f#c#g#d#a#e#]	*
*F#:	*F#:	*
*M3/8	*M3/8	*
*MM121	*MM121	*
=1	=1	=1
4.r	8r	.
.	8r	.
.	24c#LL	pp
.	24F#	.
.	24C#JJ	.
=2	=2	=2
*	*^	*
8r	8C#'L	8r	.
8r	8f#'	16f#LL	.
.	.	16A#	.
8c#' 8d#	8e#'J	16e#	.
.	.	16A#JJ	.
=3	=3	=3	=3
4.r	8f#'L	16f#LL	.
.	.	16A#	.
.	8d#'	16d#	.
.	.	16A#J	.
.	8c#'J	24c#L	.
.	.	24c#	.
.	.	24F#JJ	.
=4	=4	=4	=4
8r	8C#'L	8r	.
8r	8f#'	16f#LL	.
.	.	16A#	.
8c#' 8d#	8e#'J	16e#	.
.	.	16A#JJ	.
=5	=5	=5	=5
4.r	8f#'L	16f#LL	.
.	.	16A#	.
.	8d#'	16d#	.
.	.	16A#J	.
.	8c#'J	24c#L	.
.	.	24c#	.
.	.	24F#JJ	.
=6	=6	=6	=6
!!linebreak:original
8r	8C#'L	8r	.
8r	8f#'	16f#LL	<
.	.	16A#	.
8c#' 8d#	8e#'J	16e#	.
.	.	16A#JJ	.
=7	=7	=7	=7
8r	8f#'L	16f#LL	.
.	.	16A#	.
8c#' 8d#	8d#'	16d#	.
.	.	16A#	.
8r	8c#'J	16c#	.
.	.	16BJJ	.
=8	=8	=8	=8
8c#' 8d#	8f#'L	16f#LL	>
.	.	16A#	.
8r	8d#'	16d#	.
.	.	16A#	.
8r	8c#'J	16c#	.
.	.	16BJJ	.
=9	=9	=9	=9
4.r	8f#'L	16f#LL	]
.	.	16A#	.
.	8d#'	16d#	.
.	.	16A#J	.
.	8c#'J	24c#L	.
.	.	24c#	.
.	.	24F#JJ	.
*	*v	*v	*
==	==	==
*-	*-	*-
!!!CDT: 1876/11/23-1946/11/14
!!!CBL: Cádiz, Spain
!!!CDL: Alta Gracia, Argentina
!!!CNT: Spanish
!!!AGN: Vocal; Solo
!!!MCN:
!!!MDT: 1915/01/14
!!!MGN:
!!!MLC: Madrid, Spain
!!!MPD: 1915
!!!MPN: Falla, Manuel de; Vela, Luisa
!!!ODT: 1914
!!!PDT: 1922
!!!excerpt-start-measure: 1
!!!excerpt-end-measure: 8
!!!excerpt-start-time: 0:00
!!!excerpt-end-time: 0:06
!!!system-decoration: {(s1,s2)}
!!!ONB: Converted from MusicXML on 2019/06/04 and edited by Craig Stuart Sapp
!!!EEV: 2019/10/08
